X:1
T:On Springfield Mountain
M:3/4
L:1/8
K:E
 EGB| A3 DF F| E3 AA A| A3 EG A| B3 BG B| e3 Bd c| B3 EG B| A3 DF F|\
 E3||

